X: 14717
T: Gan Ainm
R: reel
M: 4/4
K: Gmajor
(3DEF|G2 BG E2 AG|FDEF GFED|G2 BG E2 AG|FDEF G3 z|
G2 BG E2 AG|FDEF GFED|GFGE DGBd|dcAB G2||
(3DEF|G2 BG dGBG|ABcd ecAF|G2 BG dGBG|AcAG FDEF|
G2 BG dGBG|ABcd ecAF|GFGE DGBd|dcAB G3 z||

